priv/static/images/languages/golang.svg

<svg
  width="128"
  height="128"
  viewBox="0 0 128 128"
  fill="none"
  xmlns="http://www.w3.org/2000/svg"
>
  <path
    fill-rule="evenodd"
    clip-rule="evenodd"
    d="M11.1561 54.8289C10.9131 54.8289 10.8531 54.7069 10.9741 54.5259L12.2471 52.8889C12.3671 52.7069 12.6711 52.5859 12.9131 52.5859H34.5501C34.7931 52.5859 34.8531 52.7679 34.7321 52.9499L33.7021 54.5259C33.5811 54.7069 33.2781 54.8889 33.0961 54.8889L11.1561 54.8289ZM2.00409 60.4039C1.76209 60.4039 1.70109 60.2839 1.82209 60.1009L3.09509 58.4649C3.21609 58.2829 3.51909 58.1619 3.76209 58.1619H31.3981C31.6401 58.1619 31.7621 58.3439 31.7011 58.5259L31.2161 59.9799C31.1561 60.2229 30.9131 60.3439 30.6711 60.3439L2.00409 60.4039ZM16.6701 65.9799C16.4281 65.9799 16.3681 65.7979 16.4891 65.6159L17.3371 64.1009C17.4591 63.9189 17.7011 63.7379 17.9441 63.7379H30.0641C30.3071 63.7379 30.4281 63.9189 30.4281 64.1619L30.3081 65.6159C30.3081 65.8589 30.0651 66.0409 29.8831 66.0409L16.6701 65.9799ZM79.5801 53.7379C75.7611 54.7079 73.1551 55.4349 69.3981 56.4039C68.4881 56.6469 68.4281 56.7069 67.6401 55.7979C66.7311 54.7679 66.0641 54.1009 64.7921 53.4949C60.9731 51.6169 57.2761 52.1619 53.8221 54.4049C49.7011 57.0709 47.5801 61.0099 47.6401 65.9189C47.7001 70.7679 51.0341 74.7679 55.8221 75.4349C59.9431 75.9799 63.3981 74.5249 66.1251 71.4349C66.6701 70.7679 67.1551 70.0409 67.7611 69.1919H56.0641C54.7921 69.1919 54.4891 68.4039 54.9131 67.3739C55.7011 65.4949 57.1551 62.3439 58.0031 60.7679C58.1861 60.4039 58.6101 59.7979 59.5191 59.7979H81.5791C81.4591 61.4349 81.4591 63.0709 81.2161 64.7079C80.5491 69.0709 78.9131 73.0709 76.2461 76.5859C71.8821 82.3439 66.1861 85.9189 58.9731 86.8889C53.0341 87.6769 47.5191 86.5249 42.6711 82.8889C38.1861 79.4949 35.6411 75.0099 34.9741 69.4349C34.1861 62.8289 36.1251 56.8889 40.1251 51.6769C44.4281 46.0409 50.1251 42.4649 57.0951 41.1919C62.7921 40.1619 68.2461 40.8289 73.1551 44.1619C76.3671 46.2829 78.6701 49.1919 80.1851 52.7069C80.5491 53.2529 80.3071 53.5559 79.5791 53.7369L79.5801 53.7379Z"
    fill="#00ACD7"
  />
  <path
    d="M99.6403 87.2529C94.1253 87.1309 89.0943 85.5559 84.8523 81.9189C81.2763 78.8289 79.0343 74.8889 78.3073 70.2219C77.2163 63.3739 79.0943 57.3129 83.2163 51.9199C87.6403 46.1009 92.9733 43.0709 100.186 41.7979C106.367 40.7079 112.186 41.3139 117.458 44.8889C122.246 48.1619 125.215 52.5859 126.003 58.4039C127.033 66.5859 124.67 73.2529 119.033 78.9499C115.033 83.0099 110.124 85.5559 104.488 86.7069C102.852 87.0099 101.215 87.0709 99.6403 87.2529ZM114.064 62.7679C114.004 61.9799 114.004 61.3739 113.882 60.7679C112.792 54.7679 107.276 51.3739 101.519 52.7079C95.8823 53.9799 92.2463 57.5559 90.9133 63.2529C89.8223 67.9799 92.1253 72.7679 96.4883 74.7069C99.8223 76.1619 103.155 75.9799 106.367 74.3439C111.155 71.8589 113.761 67.9799 114.064 62.7679Z"
    fill="#00ACD7"
  />
</svg>

<svg xmlns="http://www.w3.org/2000/svg" width="128" height="128" fill="none"><path fill="#00ACD7" fill-rule="evenodd" d="M11.156 54.829c-.243 0-.303-.122-.182-.303l1.273-1.637c.12-.182.424-.303.666-.303H34.55c.243 0 .303.182.182.364l-1.03 1.576c-.12.18-.424.363-.606.363zm-9.152 5.575c-.242 0-.303-.12-.182-.303l1.273-1.636c.121-.182.424-.303.667-.303h27.636c.242 0 .364.182.303.364l-.485 1.454c-.06.243-.303.364-.545.364zM16.67 65.98c-.242 0-.302-.182-.18-.364l.847-1.515c.122-.182.364-.363.607-.363h12.12c.243 0 .364.18.364.424l-.12 1.454c0 .243-.243.425-.425.425zm62.91-12.242c-3.819.97-6.425 1.697-10.182 2.666-.91.243-.97.303-1.758-.606-.909-1.03-1.576-1.697-2.848-2.303-3.819-1.878-7.516-1.333-10.97.91-4.12 2.666-6.242 6.605-6.182 11.514.06 4.849 3.394 8.849 8.182 9.516 4.121.545 7.576-.91 10.303-4 .545-.667 1.03-1.394 1.636-2.243H56.064c-1.272 0-1.575-.788-1.15-1.818.787-1.88 2.241-5.03 3.09-6.606.182-.364.606-.97 1.515-.97h22.06c-.12 1.637-.12 3.273-.363 4.91-.667 4.363-2.303 8.363-4.97 11.878-4.364 5.758-10.06 9.333-17.273 10.303-5.939.788-11.454-.364-16.302-4-4.485-3.394-7.03-7.88-7.697-13.454-.788-6.606 1.151-12.546 5.151-17.758 4.303-5.636 10-9.212 16.97-10.485 5.697-1.03 11.151-.363 16.06 2.97 3.212 2.12 5.515 5.03 7.03 8.545.364.546.122.849-.606 1.03z" clip-rule="evenodd"/><path fill="#00ACD7" d="M99.64 87.253c-5.515-.122-10.546-1.697-14.788-5.334-3.576-3.09-5.818-7.03-6.545-11.697-1.09-6.848.787-12.91 4.91-18.302 4.423-5.82 9.756-8.85 16.969-10.122 6.181-1.09 12-.484 17.272 3.09 4.788 3.274 7.757 7.698 8.545 13.516 1.03 8.182-1.333 14.849-6.97 20.546-4 4.06-8.909 6.606-14.545 7.757-1.636.303-3.273.364-4.848.546m14.424-24.485c-.06-.788-.06-1.394-.182-2-1.09-6-6.606-9.394-12.363-8.06-5.637 1.272-9.273 4.848-10.606 10.545-1.09 4.727 1.212 9.515 5.575 11.454 3.334 1.455 6.667 1.273 9.879-.363 4.788-2.485 7.394-6.364 7.697-11.576"/></svg>
